X:1
T:Title
%%score { ( 1 4 5 ) | ( 2 3 ) }
L:1/8
M:4/4
K:A
V:1 treble nm="Grand Piano"
V:4 treble 
V:5 treble 
V:2 bass 
V:3 bass 
V:1
 z4 z2[Q:1/4=106] [CE]>[CE] | [CE]2 [CA]2 [Ec]2 [CE]>[CE] | [DF]2 [FA]2 [Fd]2 [Fd]>[Fd] | %3
 [Ec]2 [EB]2 [EA]2 [DG][CA] | B6 E>E | [CE]2 [CA]2 [Ec]2 [CE]>[CE] | [DF]2 [FA]2 [Fd]2 [Fd]>[Fd] | %7
 c2 A2 B2 AG | [CEA]6 z2 | [Ec]4[K:bass][K:treble] z4 | B4[K:bass][K:treble] z4 | %11
 F>[EG] [FA]>F E2 [Ec]2 | [EB]2 [^DB]2 [EB]4 | [Ec]4[K:bass][K:treble] z4 | %14
 B4[K:bass][K:treble] z4 | [A,DF]>[A,EG] [A,FA]>[A,DF] [A,E]2 [EAc]2 | %16
[M:7/8] [DFB]2 E- [EG] [CEA]3 |] %17
V:2
 z4 z2 [A,,A,]>[A,,A,] | [A,,A,]2 [A,,A,]2 [A,,A,]2 [A,,A,]>[A,,A,] | %2
 [D,A,]2 [D,A,]2 [D,A,]2 [D,A,]>[D,A,] | [A,,A,]2 [B,,G,]2 [C,A,]2 [B,,E,][A,,A,] | %4
 [E,G,E]6 [E,G,D]>[E,B,D] | [A,,A,]2 [A,,A,]2 [A,,A,]2 [A,,A,]>[A,,A,] | %6
 [D,A,]2 [D,A,]2 [D,A,]2 [D,A,]>[D,A,] | z4 z2 .C2 | A,,6 z2 | A,4 z4 | D4 [A,C]2 z2 | %11
 [D,A,D]>[D,A,] [D,A,]>[D,A,D] [C,A,]2 [A,,A,]2 | [B,,G,]2 [B,,F,]2 [E,G,]4 | A,4 [E,G,E]2 z2 | %14
 D3- [E,D] A,2 z2 | D,>D, D,>D, C,2 A,,2 |[M:7/8] z2 E,2 z z2 |] %17
V:3
 x8 | x8 | x8 | x8 | x8 | x8 | x8 | [E,A,E]2 [E,CE]2 [E,DE]2 [E,E]-[E,B,E] | x8 | %9
 A,,2 z2 [E,G,E]2 z2 | [E,G,]2 z2 z4 | x8 | x8 | A,,2 z2 z4 | [E,G,]2 z2 z4 | x8 | %16
[M:7/8] D,2 z B, A,,3 |] %17
V:4
 x8 | x8 | x8 | x8 | x8 | x8 | x8 | x8 | x8 | z z/[K:bass] A,,/ C,A,,[K:treble] B2 z2 | %10
 z z/[K:bass] F,/ z E,[K:treble] A2 z2 | x8 | x8 | z z/[K:bass] B,,/ C,A,,[K:treble] B2 z2 | %14
 z z/[K:bass] F,/ G,2[K:treble] [CA]2 z2 | x8 |[M:7/8] z2 [CA] z z z2 |] %17
V:5
 x8 | x8 | x8 | x8 | x8 | x8 | x8 | x8 | x8 | x3/2[K:bass] x5/2[K:treble] x4 | %10
 z2[K:bass] G,2[K:treble] z4 | x8 | x8 | x3/2[K:bass] x5/2[K:treble] x4 | %14
 x3/2[K:bass] x5/2[K:treble] x4 | x8 |[M:7/8] x7 |] %17

